!!!OTL: 161. Der Baer und die Bauern.
!!!ODT: 1540
!!!ARE: Europa, Mitteleuropa, Deutschland
!!!SCT: E0161
!!!TXL: @@DE, (@@SWG?)
!!!YEM: Copyright 1995, estate of Helmut Schaffrath.
**kern	**text
*ICvox	*
*M3/4	*
*met(3)	*
*k[b-]	*
*F:	*
!LO:TX:a:t=1540	!
{4f	1._Es
=1	=1
4f	gin-
4f	-gen
4g	drei
=2	=2
2a}	Baurn
{4f	und
=3	=3
4a	ſuch-
4a	-ten
4b-	ein
=4	=4
2cc}	Bärn,
{4f	1._Es
=5	=5
4f	gin-
4f	-gen
4g	drei
=6	=6
2a}	Baurn
{4f	und
=7	=7
4a	ſuch-
4a	-ten
4b-	ein
=8	=8
2cc}	Bärn,
{4cc	und
=9	=9
4cc	als
4cc	ſie
4cc	ihn
=10	=10
4cc	fun-
4b-}	-den,
{4a	da
=11	=11
4b-/	hät-
4a	-tens
4g	ihn
=12	=12
2f}	gern.
{4cc	und
=13	=13
4cc	als
4cc	ſie
4cc	ihn
=14	=14
4cc	fun-
4b-}	-den,
{4a	da
=15	=15
4b-/	hät-
4a	-tens
4g	ihn
=16	=16
2f}	gern.
==	==
!!!AGN: erzaehlendes Volks - Lied, Sage, Tier - Maerchen, Ballade ?
!!!ONB: ESAC (Essen Associative Code) Database: ERK1
!!!AMT: simple triple
!!!AIN: vox
!!!EED: Helmut Schaffrath
!!!EEV: 1.0
!!!GTL: Thiersage und Pflanzenmaerchen
!!!URL-scan: https://rosdok.uni-rostock.de/mcrviewer/recordIdentifier/rosdok_ppn745146120/iview2/phys_0572.iview2?x=126.56012155571534&y=843.1532403579913&scale=0.6828302752574625&rotation=0&layout=singlePageLayout
!!!ENC: Anna Maria Matuszewska
!!!EEV: 2024/04/12
*-	*-
